X: 2
T: Sporting Paddy
R: reel
M: 4/4
L: 1/8
K: Gmaj
ge~e2 gede|ge~e2 a2ga|bgaf gedg|efge dBAG||g2fg edBd|ge~e2 a2ga|bgaf gfed|efge dBAG||


Tune 430	Setting 23667

